; generated by Slic3r 1.2.9 on 2016-07-19 at 16:29:52

; external perimeters extrusion width = 0.50mm
; perimeters extrusion width = 0.72mm
; infill extrusion width = 0.72mm
; solid infill extrusion width = 0.72mm
; top infill extrusion width = 0.72mm

M107
M104 S200 ; set temperature
G28 ; home all axes
G1 Z5 F5000 ; lift nozzle

M109 S200 ; wait for temperature to be reached
G21 ; set units to millimeters
G90 ; use absolute coordinates
M82 ; use absolute distances for extrusion
G92 E0
G1 Z0.500 F7800.000
G1 E-2.00000 F2400.00000
G92 E0
G1 X68.783 Y72.852 F7800.000
G1 E2.00000 F2400.00000
G1 X70.545 Y71.312 E2.14774 F1800.000
G1 X72.720 Y70.451 E2.29548
G1 X74.133 Y70.305 E2.38516
G1 X125.867 Y70.305 E5.65193
G1 X128.173 Y70.702 E5.79967
G1 X130.213 Y71.847 E5.94742 F1800.000
G1 X131.752 Y73.609 E6.09516
G1 X132.613 Y75.785 E6.24290
G1 X132.760 Y77.198 E6.33258
G1 X132.760 Y120.730 E9.08143
G1 X132.363 Y123.035 E9.22917
G1 X131.217 Y125.075 E9.37691
G1 X129.455 Y126.615 E9.52465
G1 X127.280 Y127.476 E9.67239
G1 X125.867 Y127.622 E9.76207
G1 X74.133 Y127.622 E13.02885
G1 X71.827 Y127.225 E13.17659
G1 X69.787 Y126.080 E13.32433
G1 X68.248 Y124.318 E13.47207
G1 X67.387 Y122.142 E13.61981
G1 X67.240 Y120.730 E13.70949
G1 X67.240 Y77.198 E16.45834
G1 X67.637 Y74.892 E16.60608
G1 X68.746 Y72.917 E16.74909
G1 E14.74909 F2400.00000
G92 E0
G1 X123.582 Y118.444 F7800.000
G1 E2.00000 F2400.00000
G1 X76.418 Y118.444 E4.97815 F1800.000
G1 X76.418 Y79.483 E7.43837
G1 X123.582 Y79.483 E10.41652
G1 X123.582 Y118.369 E12.87201
G1 X124.474 Y119.337 F7800.000
G1 X75.526 Y119.337 E15.96290 F1800.000
G1 X75.526 Y78.590 E18.53586
G1 X124.474 Y78.590 E21.62675
G1 X124.474 Y119.262 E24.19498
G1 X125.367 Y120.230 F7800.000
G1 X74.633 Y120.230 E27.39860 F1800.000
G1 X74.633 Y77.698 E30.08431
G1 X125.367 Y77.698 E33.28794
G1 X125.367 Y120.155 E35.96891
G1 X124.934 Y119.980 F7800.000
G1 X123.032 Y80.451 F7800.000
G1 X122.613 Y80.032 E36.00677 F1800.000
G1 X121.335 Y80.032 E36.08850
G1 X123.032 Y81.729 E36.24195
G1 X123.032 Y83.008 E36.32368
G1 X120.057 Y80.032 E36.59271
G1 X118.779 Y80.032 E36.67444
G1 X123.032 Y84.286 E37.05906
G1 X123.032 Y85.564 E37.14079
G1 X117.500 Y80.032 E37.64100
G1 X116.222 Y80.032 E37.72273
G1 X123.032 Y86.843 E38.33851
G1 X123.032 Y88.121 E38.42025
G1 X114.944 Y80.032 E39.15162
G1 X113.665 Y80.032 E39.23335
G1 X123.032 Y89.399 E40.08031
G1 X123.032 Y90.677 E40.16204
G1 X112.387 Y80.032 E41.12458
G1 X111.109 Y80.032 E41.20631
G1 X123.032 Y91.956 E42.28444
G1 X123.032 Y93.234 E42.36617
G1 X109.830 Y80.032 E43.55988
G1 X108.552 Y80.032 E43.64161
G1 X123.032 Y94.512 E44.95091
G1 X123.032 Y95.791 E45.03264
G1 X107.274 Y80.032 E46.45752
G1 X105.996 Y80.032 E46.53925
G1 X123.032 Y97.069 E48.07972
G1 X123.032 Y98.347 E48.16145
G1 X104.717 Y80.032 E49.81750
G1 X103.439 Y80.032 E49.89924
G1 X123.032 Y99.626 E51.67087
G1 X123.032 Y100.904 E51.75260
G1 X102.161 Y80.032 E53.63983
G1 X100.882 Y80.032 E53.72156
G1 X123.032 Y102.182 E55.72436
G1 X123.032 Y103.460 E55.80609
G1 X99.604 Y80.032 E57.92449
G1 X98.326 Y80.032 E58.00622
G1 X123.032 Y104.739 E60.24019
G1 X123.032 Y106.017 E60.32193
G1 X97.048 Y80.032 E62.67149
G1 X95.769 Y80.032 E62.75322
G1 X123.032 Y107.295 E65.21837
G1 X123.032 Y108.574 E65.30010
G1 X94.491 Y80.032 E67.88083
G1 X93.213 Y80.032 E67.96256
G1 X123.032 Y109.852 E70.65888
G1 X123.032 Y111.130 E70.74061
G1 X91.934 Y80.032 E73.55251
G1 X90.656 Y80.032 E73.63424
G1 X123.032 Y112.408 E76.56173
G1 X123.032 Y113.687 E76.64346
G1 X89.378 Y80.032 E79.68653
G1 X88.099 Y80.032 E79.76826
G1 X123.032 Y114.965 E82.92692
G1 X123.032 Y116.243 E83.00865
G1 X86.821 Y80.032 E86.28289
G1 X85.543 Y80.032 E86.36462
G1 X123.032 Y117.522 E89.75445
G1 X122.127 Y117.895 E89.81705
G1 X84.265 Y80.032 E93.24060
G1 X82.986 Y80.032 E93.32233
G1 X120.849 Y117.895 E96.74589
G1 X119.570 Y117.895 E96.82762
G1 X81.708 Y80.032 E100.25118
G1 X80.430 Y80.032 E100.33291
G1 X118.292 Y117.895 E103.75647
G1 X117.014 Y117.895 E103.83820
G1 X79.151 Y80.032 E107.26176
G1 X77.873 Y80.032 E107.34349
G1 X115.735 Y117.895 E110.76704
G1 X114.457 Y117.895 E110.84878
G1 X76.968 Y80.405 E114.23860
G1 X76.968 Y81.684 E114.32033
G1 X113.179 Y117.895 E117.59457
G1 X111.901 Y117.895 E117.67630
G1 X76.968 Y82.962 E120.83496
G1 X76.968 Y84.240 E120.91669
G1 X110.622 Y117.895 E123.95976
G1 X109.344 Y117.895 E124.04149
G1 X76.968 Y85.519 E126.96898
G1 X76.968 Y86.797 E127.05071
G1 X108.066 Y117.895 E129.86261
G1 X106.787 Y117.895 E129.94434
G1 X76.968 Y88.075 E132.64066
G1 X76.968 Y89.353 E132.72239
G1 X105.509 Y117.895 E135.30312
G1 X104.231 Y117.895 E135.38485
G1 X76.968 Y90.632 E137.85000
G1 X76.968 Y91.910 E137.93173
G1 X102.952 Y117.895 E140.28129
G1 X101.674 Y117.895 E140.36302
G1 X76.968 Y93.188 E142.59700
G1 X76.968 Y94.467 E142.67873
G1 X100.396 Y117.895 E144.79712
G1 X99.118 Y117.895 E144.87885
G1 X76.968 Y95.745 E146.88166
G1 X76.968 Y97.023 E146.96339
G1 X97.839 Y117.895 E148.85061
G1 X96.561 Y117.895 E148.93234
G1 X76.968 Y98.302 E150.70398
G1 X76.968 Y99.580 E150.78571
G1 X95.283 Y117.895 E152.44176
G1 X94.004 Y117.895 E152.52349
G1 X76.968 Y100.858 E154.06396
G1 X76.968 Y102.136 E154.14569
G1 X92.726 Y117.895 E155.57057
G1 X91.448 Y117.895 E155.65230
G1 X76.968 Y103.415 E156.96160
G1 X76.968 Y104.693 E157.04333
G1 X90.170 Y117.895 E158.23704
G1 X88.891 Y117.895 E158.31877
G1 X76.968 Y105.971 E159.39690
G1 X76.968 Y107.250 E159.47863
G1 X87.613 Y117.895 E160.44117
G1 X86.335 Y117.895 E160.52290
G1 X76.968 Y108.528 E161.36986
G1 X76.968 Y109.806 E161.45159
G1 X85.056 Y117.895 E162.18296
G1 X83.778 Y117.895 E162.26469
G1 X76.968 Y111.084 E162.88048
G1 X76.968 Y112.363 E162.96221
G1 X82.500 Y117.895 E163.46241
G1 X81.221 Y117.895 E163.54414
G1 X76.968 Y113.641 E163.92876
G1 X76.968 Y114.919 E164.01049
G1 X79.943 Y117.895 E164.27952
G1 X78.665 Y117.895 E164.36125
G1 X76.968 Y116.198 E164.51470
G1 X76.968 Y117.476 E164.59643
G1 X77.387 Y117.895 E164.63429
G1 Z0.800 F7800.000
G1 X124.417 Y119.280 F7800.000
G1 X75.583 Y119.280 E165.99082 F3600.000
G1 X75.583 Y78.647 E167.11951
G1 X124.417 Y78.647 E168.47603
G1 X124.417 Y119.205 E169.60264
G1 X125.072 Y119.934 F7800.000
G1 X74.928 Y119.934 E170.99553 F3600.000
G1 X74.928 Y77.993 E172.16058
G1 X125.072 Y77.993 E173.55347
G1 X125.072 Y119.859 E174.71643
G1 X125.617 Y120.480 F7800.000
G1 X74.383 Y120.480 E175.66366 F1800.000
G1 X74.383 Y77.448 E176.45925
G1 X125.617 Y77.448 E177.40648
G1 X125.617 Y120.405 E178.20068
G1 X125.184 Y120.230 F7800.000
G1 X123.702 Y118.882 F7800.000
G1 X124.020 Y118.565 E178.21319 F1200.000
G1 X124.020 Y117.637 E178.23904
G1 X122.774 Y118.882 E178.28811
G1 X121.846 Y118.882 E178.31397
G1 X124.020 Y116.709 E178.39960
G1 X124.020 Y115.780 E178.42545
G1 X120.918 Y118.882 E178.54764
G1 X119.990 Y118.882 E178.57349
G1 X124.020 Y114.852 E178.73224
G1 X124.020 Y113.924 E178.75809
G1 X119.062 Y118.882 E178.95339
G1 X118.134 Y118.882 E178.97925
G1 X124.020 Y112.996 E179.21111
G1 X124.020 Y112.068 E179.23696
G1 X117.206 Y118.882 E179.50539
G1 X116.277 Y118.882 E179.53124
G1 X124.020 Y111.140 E179.83622
G1 X124.020 Y110.212 E179.86207
G1 X115.349 Y118.882 E180.20361
G1 X114.421 Y118.882 E180.22946
G1 X124.020 Y109.284 E180.60756
G1 X124.020 Y108.356 E180.63341
G1 X113.493 Y118.882 E181.04807
G1 X112.565 Y118.882 E181.07392
G1 X124.020 Y107.427 E181.52514
G1 X124.020 Y106.499 E181.55099
G1 X111.637 Y118.882 E182.03877
G1 X110.709 Y118.882 E182.06462
G1 X124.020 Y105.571 E182.58896
G1 X124.020 Y104.643 E182.61481
G1 X109.781 Y118.882 E183.17570
G1 X108.852 Y118.882 E183.20155
G1 X124.020 Y103.715 E183.79900
G1 X124.020 Y102.787 E183.82486
G1 X107.924 Y118.882 E184.45887
G1 X106.996 Y118.882 E184.48472
G1 X124.020 Y101.859 E185.15529
G1 X124.020 Y100.931 E185.18114
G1 X106.068 Y118.882 E185.88827
G1 X105.140 Y118.882 E185.91412
G1 X124.020 Y100.003 E186.65781
G1 X124.020 Y99.074 E186.68366
G1 X104.212 Y118.882 E187.46390
G1 X103.284 Y118.882 E187.48975
G1 X124.020 Y98.146 E188.30656
G1 X124.020 Y97.218 E188.33241
G1 X102.356 Y118.882 E189.18577
G1 X101.428 Y118.882 E189.21162
G1 X124.020 Y96.290 E190.10155
G1 X124.020 Y95.362 E190.12740
G1 X100.499 Y118.882 E191.05388
G1 X99.571 Y118.882 E191.07973
G1 X124.020 Y94.434 E192.04277
G1 X124.020 Y93.506 E192.06862
G1 X98.643 Y118.882 E193.06822
G1 X97.715 Y118.882 E193.09407
G1 X124.020 Y92.578 E194.13022
G1 X124.020 Y91.650 E194.15608
G1 X96.787 Y118.882 E195.22879
G1 X95.859 Y118.882 E195.25464
G1 X124.020 Y90.721 E196.36392
G1 X124.020 Y89.793 E196.38977
G1 X94.931 Y118.882 E197.53560
G1 X94.003 Y118.882 E197.56145
G1 X124.020 Y88.865 E198.74384
G1 X124.020 Y87.937 E198.76969
G1 X93.075 Y118.882 E199.98864
G1 X92.146 Y118.882 E200.01449
G1 X124.020 Y87.009 E201.27000
G1 X124.020 Y86.081 E201.29585
G1 X91.218 Y118.882 E202.58792
G1 X90.290 Y118.882 E202.61377
G1 X124.020 Y85.153 E203.94240
G1 X124.020 Y84.225 E203.96825
G1 X89.362 Y118.882 E205.33344
G1 X88.434 Y118.882 E205.35929
G1 X124.020 Y83.297 E206.76103
G1 X124.020 Y82.368 E206.78688
G1 X87.506 Y118.882 E208.22518
G1 X86.578 Y118.882 E208.25103
G1 X124.020 Y81.440 E209.72590
G1 X124.020 Y80.512 E209.75175
G1 X85.650 Y118.882 E211.26317
G1 X84.722 Y118.882 E211.28902
G1 X124.020 Y79.584 E212.83700
G1 X123.631 Y79.045 E212.85551
G1 X83.793 Y118.882 E214.42475
G1 X82.865 Y118.882 E214.45060
G1 X122.703 Y79.045 E216.01983
G1 X121.775 Y79.045 E216.04568
G1 X81.937 Y118.882 E217.61491
G1 X81.009 Y118.882 E217.64076
G1 X120.847 Y79.045 E219.20999
G1 X119.919 Y79.045 E219.23584
G1 X80.081 Y118.882 E220.80507
G1 X79.153 Y118.882 E220.83093
G1 X118.991 Y79.045 E222.40016
G1 X118.063 Y79.045 E222.42601
G1 X78.225 Y118.882 E223.99524
G1 X77.297 Y118.882 E224.02109
G1 X117.135 Y79.045 E225.59032
G1 X116.206 Y79.045 E225.61617
G1 X76.369 Y118.882 E227.18540
G1 X75.980 Y118.343 E227.20392
G1 X115.278 Y79.045 E228.75190
G1 X114.350 Y79.045 E228.77775
G1 X75.980 Y117.415 E230.28917
G1 X75.980 Y116.487 E230.31502
G1 X113.422 Y79.045 E231.78988
G1 X112.494 Y79.045 E231.81573
G1 X75.980 Y115.559 E233.25403
G1 X75.980 Y114.630 E233.27988
G1 X111.566 Y79.045 E234.68162
G1 X110.638 Y79.045 E234.70747
G1 X75.980 Y113.702 E236.07265
G1 X75.980 Y112.774 E236.09850
G1 X109.710 Y79.045 E237.42713
G1 X108.782 Y79.045 E237.45298
G1 X75.980 Y111.846 E238.74504
G1 X75.980 Y110.918 E238.77089
G1 X107.853 Y79.045 E240.02640
G1 X106.925 Y79.045 E240.05225
G1 X75.980 Y109.990 E241.27120
G1 X75.980 Y109.062 E241.29705
G1 X105.997 Y79.045 E242.47944
G1 X105.069 Y79.045 E242.50529
G1 X75.980 Y108.134 E243.65112
G1 X75.980 Y107.206 E243.67697
G1 X104.141 Y79.045 E244.78624
G1 X103.213 Y79.045 E244.81210
G1 X75.980 Y106.277 E245.88481
G1 X75.980 Y105.349 E245.91066
G1 X102.285 Y79.045 E246.94681
G1 X101.357 Y79.045 E246.97266
G1 X75.980 Y104.421 E247.97226
G1 X75.980 Y103.493 E247.99811
G1 X100.429 Y79.045 E248.96115
G1 X99.500 Y79.045 E248.98700
G1 X75.980 Y102.565 E249.91348
G1 X75.980 Y101.637 E249.93933
G1 X98.572 Y79.045 E250.82925
G1 X97.644 Y79.045 E250.85510
G1 X75.980 Y100.709 E251.70846
G1 X75.980 Y99.781 E251.73431
G1 X96.716 Y79.045 E252.55111
G1 X95.788 Y79.045 E252.57696
G1 X75.980 Y98.853 E253.35721
G1 X75.980 Y97.924 E253.38306
G1 X94.860 Y79.045 E254.12674
G1 X93.932 Y79.045 E254.15259
G1 X75.980 Y96.996 E254.85972
G1 X75.980 Y96.068 E254.88557
G1 X93.004 Y79.045 E255.55614
G1 X92.076 Y79.045 E255.58199
G1 X75.980 Y95.140 E256.21600
G1 X75.980 Y94.212 E256.24185
G1 X91.147 Y79.045 E256.83930
G1 X90.219 Y79.045 E256.86515
G1 X75.980 Y93.284 E257.42604
G1 X75.980 Y92.356 E257.45189
G1 X89.291 Y79.045 E257.97623
G1 X88.363 Y79.045 E258.00208
G1 X75.980 Y91.428 E258.48985
G1 X75.980 Y90.499 E258.51570
G1 X87.435 Y79.045 E258.96692
G1 X86.507 Y79.045 E258.99277
G1 X75.980 Y89.571 E259.40743
G1 X75.980 Y88.643 E259.43328
G1 X85.579 Y79.045 E259.81137
G1 X84.651 Y79.045 E259.83723
G1 X75.980 Y87.715 E260.17876
G1 X75.980 Y86.787 E260.20462
G1 X83.723 Y79.045 E260.50960
G1 X82.794 Y79.045 E260.53545
G1 X75.980 Y85.859 E260.80387
G1 X75.980 Y84.931 E260.82972
G1 X81.866 Y79.045 E261.06158
G1 X80.938 Y79.045 E261.08743
G1 X75.980 Y84.003 E261.28274
G1 X75.980 Y83.075 E261.30859
G1 X80.010 Y79.045 E261.46733
G1 X79.082 Y79.045 E261.49319
G1 X75.980 Y82.146 E261.61537
G1 X75.980 Y81.218 E261.64122
G1 X78.154 Y79.045 E261.72685
G1 X77.226 Y79.045 E261.75270
G1 X75.980 Y80.290 E261.80177
G1 X75.980 Y79.362 E261.82762
G1 X76.298 Y79.045 E261.84014
G1 Z1.100 F7800.000
G1 X124.417 Y119.280 F7800.000
G1 X75.583 Y119.280 E263.19666 F3600.000
G1 X75.583 Y78.647 E264.32535
G1 X124.417 Y78.647 E265.68188
G1 X124.417 Y119.205 E266.80848
G1 X125.072 Y119.934 F7800.000
G1 X74.928 Y119.934 E268.20137 F3600.000
G1 X74.928 Y77.993 E269.36642
G1 X125.072 Y77.993 E270.75931
G1 X125.072 Y119.859 E271.92228
G1 X125.617 Y120.480 F7800.000
G1 X74.383 Y120.480 E272.86950 F1800.000
G1 X74.383 Y77.448 E273.66509
G1 X125.617 Y77.448 E274.61232
G1 X125.617 Y120.405 E275.40652
G1 X125.184 Y120.230 F7800.000
G1 X124.020 Y79.362 F7800.000
G1 X123.702 Y79.045 E275.41903 F1200.000
G1 X122.774 Y79.045 E275.44488
G1 X124.020 Y80.290 E275.49396
G1 X124.020 Y81.218 E275.51981
G1 X121.846 Y79.045 E275.60544
G1 X120.918 Y79.045 E275.63129
G1 X124.020 Y82.147 E275.75348
G1 X124.020 Y83.075 E275.77933
G1 X119.990 Y79.045 E275.93808
G1 X119.062 Y79.045 E275.96393
G1 X124.020 Y84.003 E276.15924
G1 X124.020 Y84.931 E276.18509
G1 X118.134 Y79.045 E276.41695
G1 X117.206 Y79.045 E276.44280
G1 X124.020 Y85.859 E276.71123
G1 X124.020 Y86.787 E276.73708
G1 X116.277 Y79.045 E277.04206
G1 X115.349 Y79.045 E277.06791
G1 X124.020 Y87.715 E277.40945
G1 X124.020 Y88.643 E277.43531
G1 X114.421 Y79.045 E277.81341
G1 X113.493 Y79.045 E277.83926
G1 X124.020 Y89.571 E278.25392
G1 X124.020 Y90.500 E278.27977
G1 X112.565 Y79.045 E278.73098
G1 X111.637 Y79.045 E278.75684
G1 X124.020 Y91.428 E279.24461
G1 X124.020 Y92.356 E279.27046
G1 X110.709 Y79.045 E279.79480
G1 X109.781 Y79.045 E279.82065
G1 X124.020 Y93.284 E280.38154
G1 X124.020 Y94.212 E280.40739
G1 X108.852 Y79.045 E281.00485
G1 X107.924 Y79.045 E281.03070
G1 X124.020 Y95.140 E281.66471
G1 X124.020 Y96.068 E281.69056
G1 X106.996 Y79.045 E282.36113
G1 X106.068 Y79.045 E282.38698
G1 X124.020 Y96.996 E283.09411
G1 X124.020 Y97.924 E283.11996
G1 X105.140 Y79.045 E283.86365
G1 X104.212 Y79.045 E283.88950
G1 X124.020 Y98.853 E284.66974
G1 X124.020 Y99.781 E284.69560
G1 X103.284 Y79.045 E285.51240
G1 X102.356 Y79.045 E285.53825
G1 X124.020 Y100.709 E286.39161
G1 X124.020 Y101.637 E286.41747
G1 X101.428 Y79.045 E287.30739
G1 X100.499 Y79.045 E287.33324
G1 X124.020 Y102.565 E288.25972
G1 X124.020 Y103.493 E288.28557
G1 X99.571 Y79.045 E289.24861
G1 X98.643 Y79.045 E289.27446
G1 X124.020 Y104.421 E290.27406
G1 X124.020 Y105.349 E290.29991
G1 X97.715 Y79.045 E291.33607
G1 X96.787 Y79.045 E291.36192
G1 X124.020 Y106.277 E292.43463
G1 X124.020 Y107.206 E292.46048
G1 X95.859 Y79.045 E293.56976
G1 X94.931 Y79.045 E293.59561
G1 X124.020 Y108.134 E294.74144
G1 X124.020 Y109.062 E294.76729
G1 X94.003 Y79.045 E295.94968
G1 X93.075 Y79.045 E295.97553
G1 X124.020 Y109.990 E297.19449
G1 X124.020 Y110.918 E297.22034
G1 X92.146 Y79.045 E298.47584
G1 X91.218 Y79.045 E298.50170
G1 X124.020 Y111.846 E299.79376
G1 X124.020 Y112.774 E299.81961
G1 X90.290 Y79.045 E301.14824
G1 X89.362 Y79.045 E301.17409
G1 X124.020 Y113.702 E302.53928
G1 X124.020 Y114.630 E302.56513
G1 X88.434 Y79.045 E303.96687
G1 X87.506 Y79.045 E303.99272
G1 X124.020 Y115.559 E305.43103
G1 X124.020 Y116.487 E305.45688
G1 X86.578 Y79.045 E306.93174
G1 X85.650 Y79.045 E306.95759
G1 X124.020 Y117.415 E308.46901
G1 X124.020 Y118.343 E308.49486
G1 X84.722 Y79.045 E310.04284
G1 X83.793 Y79.045 E310.06869
G1 X123.631 Y118.882 E311.63792
G1 X122.703 Y118.882 E311.66377
G1 X82.865 Y79.045 E313.23300
G1 X81.937 Y79.045 E313.25885
G1 X121.775 Y118.882 E314.82808
G1 X120.847 Y118.882 E314.85393
G1 X81.009 Y79.045 E316.42317
G1 X80.081 Y79.045 E316.44902
G1 X119.919 Y118.882 E318.01825
G1 X118.991 Y118.882 E318.04410
G1 X79.153 Y79.045 E319.61333
G1 X78.225 Y79.045 E319.63918
